X:1
T:Hark! The Herald Angel Sings
T:Hark! The Herald Angel Sings
%%score 1 { ( 2 4 ) | 3 }
L:1/8
Q:1/4=80
M:4/4
K:F
V:1 treble transpose=-9 nm="Alto Saxophone" snm="A. Sax."
V:2 treble nm="Piano" snm="Pno."
V:4 treble 
V:3 bass 
V:1
[K:D] z8 | z8 | z8 | z8 |"^A" A2 d2 d3 c | d2 f2 (f2 e) z | a2 a2 a3 g | f2 e2 f2 z2 | A2 d2 d3 c | %9
 d2 f2 (f2 e) z | a2 e2 e3 c | c2 B2 A2 z2 |"^B" a2 a2 a2 d2 | g2 f2 (f2 e) z | a2 a2 a2 d2 | %15
 g2 f2 (f2 e) z | b3 b b2 a2 | g2 f2 g2 z2 | e2 (fg) a3 d | d2 (ef) f2 z2 | b3 b b2 a2 | %21
 g2 f2 g2 z2 | e2 (fg) a3 d |[M:2/4] d2 e2- |[M:4/4] e d3 z4 | z8 | z8 ||"^C" A2 d2 d3 c | %28
 d2 f2 (f2 e) z | a2 a2 a3 g | f2 e2 f2 z2 | A2 d2 d3 c | d2 f2 (f2 e) z | a2 e2 e3 c | %34
 c2 B2 A2 z2 |"^D" a2 a2 a2 d2 | g2 f2 (f2 e) z | a2 aa a2 d2 | g2 f2 (f2 e) z | b3 b b2 a2 | %40
 g2 f2 g2 z2 | e2 (fg) a3 d | d2 (ef) f2 z2 | b3 b b2 a2 | g2 f2 g2 z2 | e2 (fg) a3 d | %46
[M:2/4] d2 e2- |[M:4/4] e d3 z4 | z8 | z8 | z8 ||[K:Eb]"^E" B2 e2 e3 d | e2 g2 (g2 f) z | %53
 b2 b2 b3 a | g2 f2 g2 z2 | B2 e2 e3 d | e2 g2 (g2 f) z | b2 f2 f3 d | d2 c2 B2 z2 | b2 b2 b2 e2 | %60
 a2 g2 (g2 f) z | b2 b2 b2 e2 | a2 g2 (g2 f) z | c'3 c' c'2 b2 | a2 g2 a2 z2 | f2 (ga) b3 e | %66
 e2 (fg) g2 z2 |"^F" c'3 c' c'2 b2 | a2 g2 a2 z2 | f2 (ga) b3 e | ef e6 |] %71
V:2
 [FGc]4 [FGc]4 | [EGc]4 [EGc]4 | c2 c2 c2 c2 | c2 c2 c2 c2 | [Fc]4 [Fc]4 | [Fc]4 [Ec]4 | %6
 [DFc]4 [DFc]4 | c4 [Fc]4 | [Fc]4 [Fc]4 | [Fc]4 [Ec]4 | [Ec]4 [Ec]4 | [Ec]4 [Ec]4 | [FAc]4 [FAc]4 | %13
 [FBc]4 [EFc]4 | [FAc]4 [FAc]4 | [FBc]4 [EFc]4 | [DFc]4 [DFc]4 | [DGBc]4 [DGBc]4 | [EFc]4 [DFc]4 | %19
 [EFA]4 [FGc]4 | [DFc]4 [DFc]4 | [DGBc]4 [DGBc]4 | [EFc]4 [DFc]4 |[M:2/4] [EFc]4 | %24
[M:4/4] [Fc]4 [Fc]4 | [EFc]4 [EFc]4 | [Fc]4 [Fc]4 || [FAc]4 [FAc]4 | [DABc]4 [DABc]4 | %29
 [DFBc]4 [DFBc]4 | [FGc]4 [DFAc]4 | [FAc]4 [FAc]4 | [DABc]4 [DABc]4 | [EGc]4 [EGc]4 | %34
 [EGc]4 [CGc]4 | [FAc]4 [EFc]4 | [FBc]4 [EGc]4 | [FAc]4 [EFc]4 | [FBc]4 [EGc]4 | [DBc]4 [FBc]4 | %40
 [DFABc]8 | [EFc]4 [FGc]4 | [FBc]4 [FAc]4 | [DBc]4 [FBc]4 | [DFABc]4 [DFABc]4 | [EFc]4 [DFAc]4 | %46
[M:2/4] [CDFB]2 [CEGA]2 |[M:4/4] [A,F]4 [CF]4 | [B,CF]4 [B,CF]3 G,/B,/ | [A,F]4 [CF]2- [CF]>F, | %50
 [B,CF]4 [B,CF]4 ||[K:Gb] [B,DG]4 [CDG]4 | [B,DG]4 [CDG]4 | [B,DG]4 [CDG]4 | [CDG]4 [B,DG]4 | %55
 [B,DG]4 [CDG]4 | [DG]4 [B,G]2 [A,F]2 | [A,DFA]4 [A,DFA]4 | [A,DFA]2 [A,DE]2 [DFA]>A, [A,DA]2 | %59
 [DGBd]4 [DGd]4 | [DGcd]4 [DGd]4 | [DGBd]4 [DGd]4 | [DGcd]4 [Dd]4 | %63
 [EGce]3 [EGce] [EGce]2 [DGBd]2 | [CDGc]3 [CDG] [B,CG]2 [EG]2 | d3 c [B,DGB]4 | %66
 [EGc]2 AB [B,DGB]4 | z8 | z8 | z8 | z8 |] %71
V:3
 z8 | z8 | z8 | z8 | z8 | z8 | z8 | z8 | z8 | z8 | z8 | z8 | C4 C4 | D4 C4 | C4 C4 | D4 C4 | %16
 B,4 B,2 A,2 | G,4 G,4 | G,4 A,4 | C4 F,4 | [B,,B,]4 [B,,B,]2 [A,,A,]2 | [G,,G,]4 [G,,G,]4 | %22
 [G,,G,]4 [A,,A,]4 |[M:2/4] [C,C]4 |[M:4/4] [F,,,F,,]8 | [F,,,F,,]8 | [F,,,F,,]6 [C,,C,]2 || %27
 [D,,D,]6 [A,,,A,,]2 | [G,,F,]8 | [B,,,B,,]8 | [C,,C,]4 [D,,D,]4 | [A,,,A,,]8 | [G,,,G,,]8 | %33
 [C,,C,]6 [G,,,G,,][A,,,A,,] | [B,,,B,,]6 [G,,,G,,]2 | [A,,,A,,]6 [A,,,A,,]2 | %36
 [B,,,B,,]4 [C,,C,]4 | [A,,,A,,]6 [A,,,A,,]2 | [B,,,B,,]2 [D,,D,]2 [C,,C,]4 | %39
 [B,,,B,,]4 [B,,,B,,]4 | [G,,,G,,]4 [G,,,G,,]4 | [C,,C,]2 [C,,C,][B,,,B,,] [A,,,A,,]4 | %42
 [B,,,B,,]4 [F,,,F,,]4 | [B,,,B,,]3 [C,,C,] [D,,D,]2 [B,,,B,,]2 | [G,,,G,,]4 [G,,,G,,]4 | %45
 [C,,C,]4 [D,,D,]4 |[M:2/4] [B,,,B,,]2 [C,,C,]2 |[M:4/4] [F,,,F,,]4 [F,,,F,,]4 | %48
 [F,,F,]4 [F,,F,]4 | [F,,,F,,]4 [F,,,F,,]4 | [F,,F,]4 [F,,F,]2 [F,,,F,,]2 || %51
[K:Gb] [G,,,G,,]4 [A,,,A,,]4 | [B,,,B,,]4 [C,,C,]4 | [D,,D,]4 [E,,E,]4 | [C,,C,]4 [G,,,G,,]4 | %55
 [G,,,G,,]4 [A,,,A,,]4 | [B,,,B,,]2 [C,,C,]2 [D,,D,]4 | [D,,D,]4 [C,,C,]4 | [B,,,B,,]4 [A,,,A,,]4 | %59
 [G,,,G,,]4 [B,,,B,,]4 | [A,,,A,,]4 [D,,D,]4 | [B,,,B,,]4 [C,,C,]4 | [A,,,A,,]4 [D,,D,]4 | %63
 [C,,C,]3 [D,,D,] [E,,E,]2 [G,,,G,,]2 | [A,,,A,,]4 [A,,,A,,]4 | [D,,D,]3 [C,,C,] [B,,,B,,]4 | %66
 [C,,C,]2 [D,,D,]2 [G,,G,]4 | z8 | z8 | z8 | z8 |] %71
V:4
 x8 | x8 | F4 F4 | [EG]4 [EG]4 | x8 | x8 | x8 | F2 E2 x4 | x8 | x8 | x8 | x8 | x8 | x8 | x8 | x8 | %16
 x8 | x8 | x8 | x8 | x8 | x8 | x8 |[M:2/4] x4 |[M:4/4] x2 C4 C2- | C2 C4 C2- | C2 C4 C2 || %27
 C2 C4 C2- | C2 C4 C2- | C2 C4 C2- | C2 C4 C2- | C2 C4 C2- | C2 C4 C2- | C2 C4 C2- | C2 C4 C2- | %35
 C>C- CC- C2 C2- | C>C- CC- C2 C2- | C>C- CC- C2 C2- | C>C- CC- C2 C2- | C>C- CC- C2 C2- | %40
 C>C- CC- C2 C2- | C>C- CC- C2 C2- | C>C- CC- C2 C2- | C>C- CC- C2 C2- | C>C- CC- C2 C2- | %45
 C2 CC- C2 C2- |[M:2/4] x4 |[M:4/4] x8 | x8 | x8 | x8 ||[K:Gb] x8 | x8 | x8 | x8 | x8 | B,2 C2 D4 | %57
 x8 | x8 | x8 | x8 | x8 | x4 [GB]2 [FA]2 | x8 | x8 | [DFA]4 x4 | x2 [DF]2 x4 | x8 | x8 | x8 | x8 |] %71

